app/assets/images/icons/active/mouse.svg

<?xml version="1.0" encoding="UTF-8" standalone="no"?>
<svg width="32px" height="232px" viewBox="0 0 32 232" version="1.1" xmlns="http://www.w3.org/2000/svg" xmlns:xlink="http://www.w3.org/1999/xlink" xmlns:sketch="http://www.bohemiancoding.com/sketch/ns">
    <title>mouse</title>
    <description>Created with Sketch (http://www.bohemiancoding.com/sketch)</description>
    <defs></defs>
    <g id="Graphics" stroke="none" stroke-width="1" fill="none" fill-rule="evenodd" sketch:type="MSPage">
        <path d="M25.5272581,139.5885 L24.1658804,140.9415 L19.4005559,136.1985 C18.721374,135.5215 19.3613723,134.8985 19.3613723,134.8985 L19.3593629,134.8865 C20.6343359,136.1575 22.1233114,134.8455 22.1233114,134.8455 L23.4836844,133.4905 C24.7606668,132.2225 23.5268868,130.8235 23.5268868,130.8235 L24.890274,129.4705 L25.5272581,130.1055 C28.1575806,132.7225 28.1575806,136.9685 25.5272581,139.5885 C25.5272581,139.5885 28.1575806,136.9685 25.5272581,139.5885 L25.5272581,139.5885 L25.5272581,139.5885 Z M20.0807424,130.0215 L18.6369787,131.4585 C17.3579869,132.7335 18.5817198,134.1065 18.6550634,134.1855 C18.4882821,134.3165 17.895505,134.7005 17.3177986,134.1265 L12.5976859,129.4275 L13.958059,128.0715 C16.5883814,125.4545 20.8543667,125.4545 23.4836844,128.0745 L24.122678,128.7085 L22.7823991,130.0425 C21.5928262,128.8565 20.0807424,130.0215 20.0807424,130.0215 L20.0807424,130.0215 L20.0807424,130.0215 L20.0807424,130.0215 Z M18.6570728,134.1885 C18.6570728,134.1885 18.6570728,134.1875 18.6550634,134.1855 C18.6841999,134.1615 18.6992705,134.1465 18.6992705,134.1465 L18.6570728,134.1885 L18.6570728,134.1885 L18.6570728,134.1885 L18.6570728,134.1885 Z M18.0401828,147.0385 C15.410865,149.6545 11.1458845,149.6545 8.51455733,147.0385 L6.47198834,145.0055 C3.84267055,142.3865 3.84267055,138.1425 6.47198834,135.5215 L11.874297,130.1485 L23.4836844,141.6185 L18.0401828,147.0385 L18.0401828,147.0385 L18.0401828,147.0385 L18.0401828,147.0385 Z M22.8045026,132.8145 L21.4431249,134.1695 C21.0683692,134.5425 20.4575075,134.5425 20.0807424,134.1695 L19.4005559,133.4915 C19.0258002,133.1165 19.0258002,132.5095 19.4005559,132.1365 L20.7629383,130.7835 C21.1386987,130.4065 21.7254475,130.4295 22.1022125,130.8025 L22.7823991,131.4805 C23.1581594,131.8555 23.1792583,132.4395 22.8045026,132.8145 C22.8045026,132.8145 23.1792583,132.4395 22.8045026,132.8145 L22.8045026,132.8145 L22.8045026,132.8145 Z M26.0577433,125.5545 C27.6100154,127.3555 24.8470716,129.3865 24.8470716,129.3865 L24.1658804,128.7085 C24.1658804,128.7085 26.4405366,126.9935 25.3785615,125.8515 C23.8674824,123.8415 25.5061593,121.9995 25.5061593,121.9995 L26.165247,122.6535 C26.165247,122.6535 25.1866625,124.0935 26.0577433,125.5545 L26.0577433,125.5545 Z M26.0577433,125.5545" id="mouse--white" fill="#206FAC" sketch:type="MSShapeGroup"></path>
        <path d="M25.5272581,99.5885 L24.1658804,100.9415 L19.4005559,96.1985 C18.721374,95.5215 19.3613723,94.8985 19.3613723,94.8985 L19.3593629,94.8865 C20.6343359,96.1575 22.1233114,94.8455 22.1233114,94.8455 L23.4836844,93.4905 C24.7606668,92.2225 23.5268868,90.8235 23.5268868,90.8235 L24.890274,89.4705 L25.5272581,90.1055 C28.1575806,92.7225 28.1575806,96.9685 25.5272581,99.5885 C25.5272581,99.5885 28.1575806,96.9685 25.5272581,99.5885 L25.5272581,99.5885 L25.5272581,99.5885 Z M20.0807424,90.0215 L18.6369787,91.4585 C17.3579869,92.7335 18.5817198,94.1065 18.6550634,94.1855 C18.4882821,94.3165 17.895505,94.7005 17.3177986,94.1265 L12.5976859,89.4275 L13.958059,88.0715 C16.5883814,85.4545 20.8543667,85.4545 23.4836844,88.0745 L24.122678,88.7085 L22.7823991,90.0425 C21.5928262,88.8565 20.0807424,90.0215 20.0807424,90.0215 L20.0807424,90.0215 L20.0807424,90.0215 L20.0807424,90.0215 Z M18.6570728,94.1885 C18.6570728,94.1885 18.6570728,94.1875 18.6550634,94.1855 C18.6841999,94.1615 18.6992705,94.1465 18.6992705,94.1465 L18.6570728,94.1885 L18.6570728,94.1885 L18.6570728,94.1885 L18.6570728,94.1885 Z M18.0401828,107.0385 C15.410865,109.6545 11.1458845,109.6545 8.51455733,107.0385 L6.47198834,105.0055 C3.84267055,102.3865 3.84267055,98.1425 6.47198834,95.5215 L11.874297,90.1485 L23.4836844,101.6185 L18.0401828,107.0385 L18.0401828,107.0385 L18.0401828,107.0385 L18.0401828,107.0385 Z M22.8045026,92.8145 L21.4431249,94.1695 C21.0683692,94.5425 20.4575075,94.5425 20.0807424,94.1695 L19.4005559,93.4915 C19.0258002,93.1165 19.0258002,92.5095 19.4005559,92.1365 L20.7629383,90.7835 C21.1386987,90.4065 21.7254475,90.4295 22.1022125,90.8025 L22.7823991,91.4805 C23.1581594,91.8555 23.1792583,92.4395 22.8045026,92.8145 C22.8045026,92.8145 23.1792583,92.4395 22.8045026,92.8145 L22.8045026,92.8145 L22.8045026,92.8145 Z M26.0577433,85.5545 C27.6100154,87.3555 24.8470716,89.3865 24.8470716,89.3865 L24.1658804,88.7085 C24.1658804,88.7085 26.4405366,86.9935 25.3785615,85.8515 C23.8674824,83.8415 25.5061593,81.9995 25.5061593,81.9995 L26.165247,82.6535 C26.165247,82.6535 25.1866625,84.0935 26.0577433,85.5545 L26.0577433,85.5545 Z M26.0577433,85.5545" id="mouse--subdued-grey" fill="#FFFFFF" sketch:type="MSShapeGroup"></path>
        <path d="M25.5272581,59.5885 L24.1658804,60.9415 L19.4005559,56.1985 C18.721374,55.5215 19.3613723,54.8985 19.3613723,54.8985 L19.3593629,54.8865 C20.6343359,56.1575 22.1233114,54.8455 22.1233114,54.8455 L23.4836844,53.4905 C24.7606668,52.2225 23.5268868,50.8235 23.5268868,50.8235 L24.890274,49.4705 L25.5272581,50.1055 C28.1575806,52.7225 28.1575806,56.9685 25.5272581,59.5885 C25.5272581,59.5885 28.1575806,56.9685 25.5272581,59.5885 L25.5272581,59.5885 L25.5272581,59.5885 Z M20.0807424,50.0215 L18.6369787,51.4585 C17.3579869,52.7335 18.5817198,54.1065 18.6550634,54.1855 C18.4882821,54.3165 17.895505,54.7005 17.3177986,54.1265 L12.5976859,49.4275 L13.958059,48.0715 C16.5883814,45.4545 20.8543667,45.4545 23.4836844,48.0745 L24.122678,48.7085 L22.7823991,50.0425 C21.5928262,48.8565 20.0807424,50.0215 20.0807424,50.0215 L20.0807424,50.0215 L20.0807424,50.0215 L20.0807424,50.0215 Z M18.6570728,54.1885 C18.6570728,54.1885 18.6570728,54.1875 18.6550634,54.1855 C18.6841999,54.1615 18.6992705,54.1465 18.6992705,54.1465 L18.6570728,54.1885 L18.6570728,54.1885 L18.6570728,54.1885 L18.6570728,54.1885 Z M18.0401828,67.0385 C15.410865,69.6545 11.1458845,69.6545 8.51455733,67.0385 L6.47198834,65.0055 C3.84267055,62.3865 3.84267055,58.1425 6.47198834,55.5215 L11.874297,50.1485 L23.4836844,61.6185 L18.0401828,67.0385 L18.0401828,67.0385 L18.0401828,67.0385 L18.0401828,67.0385 Z M22.8045026,52.8145 L21.4431249,54.1695 C21.0683692,54.5425 20.4575075,54.5425 20.0807424,54.1695 L19.4005559,53.4915 C19.0258002,53.1165 19.0258002,52.5095 19.4005559,52.1365 L20.7629383,50.7835 C21.1386987,50.4065 21.7254475,50.4295 22.1022125,50.8025 L22.7823991,51.4805 C23.1581594,51.8555 23.1792583,52.4395 22.8045026,52.8145 C22.8045026,52.8145 23.1792583,52.4395 22.8045026,52.8145 L22.8045026,52.8145 L22.8045026,52.8145 Z M26.0577433,45.5545 C27.6100154,47.3555 24.8470716,49.3865 24.8470716,49.3865 L24.1658804,48.7085 C24.1658804,48.7085 26.4405366,46.9935 25.3785615,45.8515 C23.8674824,43.8415 25.5061593,41.9995 25.5061593,41.9995 L26.165247,42.6535 C26.165247,42.6535 25.1866625,44.0935 26.0577433,45.5545 L26.0577433,45.5545 Z M26.0577433,45.5545" id="mouse--body-grey" fill="#67737B" sketch:type="MSShapeGroup"></path>
        <path d="M25.5272581,19.5885 L24.1658804,20.9415 L19.4005559,16.1985 C18.721374,15.5215 19.3613723,14.8985 19.3613723,14.8985 L19.3593629,14.8865 C20.6343359,16.1575 22.1233114,14.8455 22.1233114,14.8455 L23.4836844,13.4905 C24.7606668,12.2225 23.5268868,10.8235 23.5268868,10.8235 L24.890274,9.4705 L25.5272581,10.1055 C28.1575806,12.7225 28.1575806,16.9685 25.5272581,19.5885 C25.5272581,19.5885 28.1575806,16.9685 25.5272581,19.5885 L25.5272581,19.5885 L25.5272581,19.5885 Z M20.0807424,10.0215 L18.6369787,11.4585 C17.3579869,12.7335 18.5817198,14.1065 18.6550634,14.1855 C18.4882821,14.3165 17.895505,14.7005 17.3177986,14.1265 L12.5976859,9.4275 L13.958059,8.0715 C16.5883814,5.4545 20.8543667,5.4545 23.4836844,8.0745 L24.122678,8.7085 L22.7823991,10.0425 C21.5928262,8.8565 20.0807424,10.0215 20.0807424,10.0215 L20.0807424,10.0215 L20.0807424,10.0215 L20.0807424,10.0215 Z M18.6570728,14.1885 C18.6570728,14.1885 18.6570728,14.1875 18.6550634,14.1855 C18.6841999,14.1615 18.6992705,14.1465 18.6992705,14.1465 L18.6570728,14.1885 L18.6570728,14.1885 L18.6570728,14.1885 L18.6570728,14.1885 Z M18.0401828,27.0385 C15.410865,29.6545 11.1458845,29.6545 8.51455733,27.0385 L6.47198834,25.0055 C3.84267055,22.3865 3.84267055,18.1425 6.47198834,15.5215 L11.874297,10.1485 L23.4836844,21.6185 L18.0401828,27.0385 L18.0401828,27.0385 L18.0401828,27.0385 L18.0401828,27.0385 Z M22.8045026,12.8145 L21.4431249,14.1695 C21.0683692,14.5425 20.4575075,14.5425 20.0807424,14.1695 L19.4005559,13.4915 C19.0258002,13.1165 19.0258002,12.5095 19.4005559,12.1365 L20.7629383,10.7835 C21.1386987,10.4065 21.7254475,10.4295 22.1022125,10.8025 L22.7823991,11.4805 C23.1581594,11.8555 23.1792583,12.4395 22.8045026,12.8145 C22.8045026,12.8145 23.1792583,12.4395 22.8045026,12.8145 L22.8045026,12.8145 L22.8045026,12.8145 Z M26.0577433,5.5545 C27.6100154,7.3555 24.8470716,9.3865 24.8470716,9.3865 L24.1658804,8.7085 C24.1658804,8.7085 26.4405366,6.9935 25.3785615,5.8515 C23.8674824,3.8415 25.5061593,1.9995 25.5061593,1.9995 L26.165247,2.6535 C26.165247,2.6535 25.1866625,4.0935 26.0577433,5.5545 L26.0577433,5.5545 Z M26.0577433,5.5545" id="mouse--title-grey" fill="#3A434E" sketch:type="MSShapeGroup"></path>
    </g>
</svg>

<svg width="32" height="232" viewBox="0 0 32 232" xmlns="http://www.w3.org/2000/svg" xmlns:sketch="http://www.bohemiancoding.com/sketch/ns"><title>mouse</title><g sketch:type="MSPage" fill="none"><path d="M25.527 139.589l-1.361 1.353-4.765-4.743c-.679-.677-.039-1.3-.039-1.3l-.002-.012c1.275 1.271 2.764-.041 2.764-.041l1.36-1.355c1.277-1.268.043-2.667.043-2.667l1.363-1.353.637.635c2.63 2.617 2.63 6.863 0 9.483zm-5.447-9.567l-1.444 1.437c-1.279 1.275-.055 2.648.018 2.727-.167.131-.76.515-1.337-.059l-4.72-4.699 1.36-1.356c2.63-2.617 6.896-2.617 9.526.003l.639.634-1.34 1.334c-1.19-1.186-2.702-.021-2.702-.021zm-1.424 4.167l-.002-.003.044-.039-.042.042zm-.617 12.85c-2.629 2.616-6.894 2.616-9.526 0l-2.043-2.033c-2.629-2.619-2.629-6.863 0-9.484l5.402-5.373 11.609 11.47-5.444 5.42zm4.764-14.224l-1.361 1.355c-.375.373-.986.373-1.362 0l-.68-.678c-.375-.375-.375-.982 0-1.355l1.362-1.353c.376-.377.963-.354 1.339.019l.68.678c.376.375.397.959.022 1.334zm3.253-7.26c1.552 1.801-1.211 3.832-1.211 3.832l-.681-.678s2.275-1.715 1.213-2.857c-1.511-2.01.128-3.852.128-3.852l.659.654s-.979 1.44-.108 2.901zm0 0" fill="#206FAC" sketch:type="MSShapeGroup"/><path d="M25.527 99.588l-1.361 1.353-4.765-4.743c-.679-.677-.039-1.3-.039-1.3l-.002-.012c1.275 1.271 2.764-.041 2.764-.041l1.36-1.355c1.277-1.268.043-2.667.043-2.667l1.363-1.353.637.635c2.63 2.617 2.63 6.863 0 9.483zm-5.447-9.567l-1.444 1.437c-1.279 1.275-.055 2.648.018 2.727-.167.131-.76.515-1.337-.059l-4.72-4.699 1.36-1.356c2.63-2.617 6.896-2.617 9.526.003l.639.634-1.34 1.334c-1.19-1.186-2.702-.021-2.702-.021zm-1.424 4.167l-.002-.003.044-.039-.042.042zm-.617 12.85c-2.629 2.616-6.894 2.616-9.526 0l-2.043-2.033c-2.629-2.619-2.629-6.863 0-9.484l5.402-5.373 11.609 11.47-5.444 5.42zm4.764-14.224l-1.361 1.355c-.375.373-.986.373-1.362 0l-.68-.678c-.375-.375-.375-.982 0-1.355l1.362-1.353c.376-.377.963-.354 1.339.019l.68.678c.376.375.397.959.022 1.334zm3.253-7.26c1.552 1.801-1.211 3.832-1.211 3.832l-.681-.678s2.275-1.715 1.213-2.857c-1.511-2.01.128-3.852.128-3.852l.659.654s-.979 1.44-.108 2.901zm0 0" fill="#fff" sketch:type="MSShapeGroup"/><path d="M25.527 59.589l-1.361 1.353-4.765-4.743c-.679-.677-.039-1.3-.039-1.3l-.002-.012c1.275 1.271 2.764-.041 2.764-.041l1.36-1.355c1.277-1.268.043-2.667.043-2.667l1.363-1.353.637.635c2.63 2.617 2.63 6.863 0 9.483zm-5.447-9.567l-1.444 1.437c-1.279 1.275-.055 2.648.018 2.727-.167.131-.76.515-1.337-.059l-4.72-4.699 1.36-1.356c2.63-2.617 6.896-2.617 9.526.003l.639.634-1.34 1.334c-1.19-1.186-2.702-.021-2.702-.021zm-1.424 4.167l-.002-.003.044-.039-.042.042zm-.617 12.85c-2.629 2.616-6.894 2.616-9.526 0l-2.043-2.033c-2.629-2.619-2.629-6.863 0-9.484l5.402-5.373 11.609 11.47-5.444 5.42zm4.764-14.224l-1.361 1.355c-.375.373-.986.373-1.362 0l-.68-.678c-.375-.375-.375-.982 0-1.355l1.362-1.353c.376-.377.963-.354 1.339.019l.68.678c.376.375.397.959.022 1.334zm3.253-7.26c1.552 1.801-1.211 3.832-1.211 3.832l-.681-.678s2.275-1.715 1.213-2.857c-1.511-2.01.128-3.852.128-3.852l.659.654s-.979 1.44-.108 2.901zm0 0" fill="#67737B" sketch:type="MSShapeGroup"/><path d="M25.527 19.588l-1.361 1.353-4.765-4.743c-.679-.677-.039-1.3-.039-1.3l-.002-.012c1.275 1.271 2.764-.041 2.764-.041l1.36-1.355c1.277-1.268.043-2.667.043-2.667l1.363-1.353.637.635c2.63 2.617 2.63 6.863 0 9.483zm-5.447-9.567l-1.444 1.437c-1.279 1.275-.055 2.648.018 2.727-.167.131-.76.515-1.337-.059l-4.72-4.699 1.36-1.356c2.63-2.617 6.896-2.617 9.526.003l.639.634-1.34 1.334c-1.19-1.186-2.702-.021-2.702-.021zm-1.424 4.167l-.002-.003.044-.039-.042.042zm-.617 12.85c-2.629 2.616-6.894 2.616-9.526 0l-2.043-2.033c-2.629-2.619-2.629-6.863 0-9.484l5.402-5.373 11.609 11.47-5.444 5.42zm4.764-14.224l-1.361 1.355c-.375.373-.986.373-1.362 0l-.68-.678c-.375-.375-.375-.982 0-1.355l1.362-1.353c.376-.377.963-.354 1.339.019l.68.678c.376.375.397.959.022 1.334zm3.253-7.26c1.552 1.801-1.211 3.832-1.211 3.832l-.681-.678s2.275-1.715 1.213-2.857c-1.511-2.01.128-3.852.128-3.852l.659.654s-.979 1.44-.108 2.901zm0 0" fill="#3A434E" sketch:type="MSShapeGroup"/></g></svg>
